X:10
T:No.30 The Devil's Dream
C:reel
M:4/4
L:1/8
K:D
BEED BcdB|ADFD FGAd|
BEED Bdef|[1gfed Beed:|[2gfed Beef||
gebe gbeg|fdcd Beef|
gebe gbef|gfed Beef|
gebe gbeg|fdcd Adfa|
ggbg dfaf|gfed Beed||
